X: 12
T: The Girl I Left Behind Me
R: polka
M: 2/4
L: 1/8
K: Gmaj
|: g/f/ | ed BA | BG E>F | GG G/A/B/c/ | d2 B g/f/ |
ed BA | BG E>G | F/G/A DE/F/ | G2 G :|
|: d/c/ | Bd ef | gd B/A/G | Bd ef | g a/g/f g/f/ |
ed BA | BG E>G | F/G/A DE/F/ | G2 G :|


Tune 5418	Setting 5418

